assets/icons/README.svg

<svg width="136" height="136" viewBox="0 0 136 136" fill="none" xmlns="http://www.w3.org/2000/svg">
<path d="M63.3635 98.9876L60.3859 96.3168L60.3618 96.3436L60.3382 96.3709L63.3635 98.9876ZM72.5241 98.9876L69.5464 101.658L69.5697 101.685L69.5935 101.71L72.5241 98.9876ZM72.5241 107.476L69.5935 104.754L69.5697 104.78L69.5464 104.806L72.5241 107.476ZM63.3635 107.476L60.3382 110.093L60.3618 110.12L60.3859 110.147L63.3635 107.476ZM62.2559 31.6073L66.2556 31.5541L62.2559 31.6073ZM62.9077 80.6024L58.9081 80.6556L62.9077 80.6024ZM72.4135 80.5979L68.4138 80.5485L72.4135 80.5979ZM73.0187 31.6022L77.0184 31.6516L73.0187 31.6022ZM128 68C128 101.137 101.137 128 68 128V136C105.555 136 136 105.555 136 68H128ZM68 128C34.8629 128 8 101.137 8 68H0C0 105.555 30.4446 136 68 136V128ZM8 68C8 34.8629 34.8629 8 68 8V0C30.4446 0 0 30.4446 0 68H8ZM68 8C101.137 8 128 34.8629 128 68H136C136 30.4446 105.555 0 68 0V8ZM69.0191 31.5528L68.4138 80.5485L76.4132 80.6473L77.0184 31.6516L69.0191 31.5528ZM66.9074 80.5492L66.2556 31.5541L58.2563 31.6605L58.9081 80.6556L66.9074 80.5492ZM65.8462 103.289C65.8462 102.451 66.0692 101.974 66.3889 101.604L60.3382 96.3709C58.6347 98.3404 57.8462 100.731 57.8462 103.289H65.8462ZM66.3412 101.658C66.4267 101.563 66.7371 101.233 67.9719 101.233V93.2333C65.1604 93.2333 62.3985 94.0729 60.3859 96.3168L66.3412 101.658ZM67.9719 101.233C69.1425 101.233 69.4469 101.548 69.5464 101.658L75.5017 96.3168C73.5031 94.0886 70.7728 93.2333 67.9719 93.2333V101.233ZM69.5935 101.71C69.9462 102.09 70.1538 102.53 70.1538 103.289H78.1538C78.1538 100.651 77.275 98.2246 75.4546 96.2652L69.5935 101.71ZM70.1538 103.289C70.1538 103.919 69.9803 104.338 69.5935 104.754L75.4546 110.199C77.2408 108.276 78.1538 105.903 78.1538 103.289H70.1538ZM69.5464 104.806C69.4469 104.917 69.1425 105.231 67.9719 105.231V113.231C70.7728 113.231 73.5031 112.375 75.5017 110.147L69.5464 104.806ZM67.9719 105.231C66.7371 105.231 66.4267 104.901 66.3412 104.806L60.3859 110.147C62.3985 112.391 65.1604 113.231 67.9719 113.231V105.231ZM66.3889 104.86C66.0388 104.455 65.8462 104.001 65.8462 103.289H57.8462C57.8462 105.821 58.6651 108.159 60.3382 110.093L66.3889 104.86ZM66.2556 31.5541C66.2453 30.7838 66.8669 30.1538 67.6373 30.1538V22.1538C62.407 22.1538 58.1867 26.4307 58.2563 31.6605L66.2556 31.5541ZM67.6606 81.2924C67.2485 81.2924 66.9129 80.9612 66.9074 80.5492L58.9081 80.6556C58.9718 85.444 62.8717 89.2924 67.6606 89.2924V81.2924ZM68.4138 80.5485C68.4087 80.9608 68.0729 81.2924 67.6606 81.2924V89.2924C72.4527 89.2924 76.354 85.439 76.4132 80.6473L68.4138 80.5485ZM77.0184 31.6516C77.083 26.4252 72.8641 22.1538 67.6373 22.1538V30.1538C68.4072 30.1538 69.0286 30.783 69.0191 31.5528L77.0184 31.6516Z" fill="#2EB4FF"/>
</svg>

<?xml version="1.0" encoding="utf-8"?>
<!-- Generator: Adobe Illustrator 28.4.1, SVG Export Plug-In . SVG Version: 6.00 Build 0)  -->
<svg version="1.1" id="Layer_1" xmlns="http://www.w3.org/2000/svg" xmlns:xlink="http://www.w3.org/1999/xlink" x="0px" y="0px"
	 viewBox="0 0 136 136" style="enable-background:new 0 0 136 136;" xml:space="preserve">
<style type="text/css">
	.st0{fill:#FFD600;}
</style>
<path class="st0" d="M68,0v8c33.1,0,60,26.9,60,60h8C136,30.4,105.6,0,68,0z M0,68h8C8,34.9,34.9,8,68,8V0C30.4,0,0,30.4,0,68z
	 M8,68H0c0,37.6,30.4,68,68,68v-8C34.9,128,8,101.1,8,68z M128,68c0,33.1-26.9,60-60,60v8c37.6,0,68-30.4,68-68H128z"/>
<path class="st0" d="M77,31.7l-0.6,49c-0.1,4.8-4,8.6-8.8,8.6c-4.8,0-8.7-3.8-8.8-8.6l-0.6-49c-0.1-5.2,4.1-9.5,9.4-9.5
	C72.9,22.2,77.1,26.4,77,31.7z"/>
<path class="st0" d="M78.2,103.3c0,2.6-0.9,5-2.7,6.9c0,0,0,0,0,0c-2,2.2-4.7,3-7.5,3c-2.8,0-5.6-0.8-7.6-3.1l0,0l0,0
	c-1.7-1.9-2.5-4.3-2.5-6.8c0-2.6,0.8-4.9,2.5-6.9l0,0l0,0c2-2.2,4.8-3.1,7.6-3.1c2.8,0,5.5,0.9,7.5,3l0,0
	C77.3,98.3,78.2,100.7,78.2,103.3z"/>
</svg>
